; generated by PrusaSlicer 2.7.1+MacOS-arm64 on 2024-03-15 at 21:09:14 UTC


;
;
; 

; external perimeters extrusion width = 0.45mm
; perimeters extrusion width = 0.45mm
; infill extrusion width = 0.45mm
; solid infill extrusion width = 0.45mm
; top infill extrusion width = 0.40mm
; first layer extrusion width = 0.42mm

M73 P0 R118
M73 C81
M73 Q0 S119
M73 D82
M201 X1000 Y1000 Z200 E5000 ; sets maximum accelerations, mm/sec^2
M203 X200 Y200 Z12 E120 ; sets maximum feedrates, mm / sec
M204 S1250 T1250 ; sets acceleration (S) and retract acceleration (R), mm/sec^2
M205 X8.00 Y8.00 Z0.40 E4.50 ; sets the jerk limits, mm/sec
M205 S0 T0 ; sets the minimum extruding and travel feed rate, mm/sec

; printing object Body1.stl id:0 copy 0
; stop printing object Body1.stl id:0 copy 0

;TYPE:Custom
M862.3 P "MK3S" ; printer model check
M862.1 P0.4 ; nozzle diameter check
M115 U3.13.3 ; tell printer latest fw version
G90 ; use absolute coordinates
M83 ; extruder relative mode
M104 S240 ; set extruder temp
M140 S85 ; set bed temp
M190 S85 ; wait for bed temp
M109 S240 ; wait for extruder temp
G28 W ; home all without mesh bed level
G80 X73.6948 Y51.269 W102.61 H107.462 ; mesh bed levelling

G1 Z0.2 F720
G1 Y-3 F1000 ; go outside print area
G92 E0
G1 X60 E9 F1000 ; intro line
G1 X100 E12.5 F1000 ; intro line
M73 Q0 S118
M73 D81

G92 E0
M221 S95

; Don't change E values below. Excessive value can damage the printer.

M907 E538 ; set extruder motor current
G21 ; set units to millimeters
G90 ; use absolute coordinates
M83 ; use relative distances for extrusion

M900 K0.08 ; Filament gcode LA 1.5
M900 K45 ; Filament gcode LA 1.0




M107
;LAYER_CHANGE
;Z:0.2
;HEIGHT:0.2
;BEFORE_LAYER_CHANGE
G92 E0.0
;0.2


G1 E-1 F2100
G1 Z.2 F720
;AFTER_LAYER_CHANGE
;0.2
G1 X87.105 Y59.555 F10800
G1 Z.2 F720
G1 E1 F2100
M204 S800
;TYPE:Skirt/Brim
;WIDTH:0.42
G1 F1200
G1 X87.889 Y58.564 E.03962
G1 X89.32 Y57.055 E.06521
G1 X91.137 Y55.558 E.07382
G1 X92.054 Y54.942 E.03464
G1 X93.873 Y53.941 E.0651
G1 X96.092 Y53.045 E.07503
G1 X98.918 Y52.298 E.09165
G1 X100.489 Y52.028 E.04998
G1 X102.226 Y51.845 E.05476
G1 X104.029 Y51.778 E.05657
G1 X145.314 Y51.458 E1.2945
G1 X148.199 Y51.597 E.09056
G1 X149.6 Y51.77 E.04426
G1 X152.107 Y52.265 E.08012
G1 X154.598 Y53.029 E.08169
G1 X156.685 Y53.929 E.07126
G1 X157.727 Y54.488 E.03708
G1 X159.799 Y55.868 E.07806
G1 X161.549 Y57.398 E.07288
G1 X162.348 Y58.244 E.03649
G1 X163.703 Y59.969 E.06878
G1 X165.008 Y62.127 E.07907
G1 X166.124 Y64.621 E.08567
G1 X166.977 Y67.365 E.0901
G1 X175.753 Y102.546 E1.13688
G1 X176.031 Y104.302 E.05574
G1 X176.116 Y105.879 E.04952
G1 X176.051 Y107.471 E.04996
G1 X175.839 Y109.073 E.05067
G1 X175.531 Y110.493 E.04556
G1 X175.004 Y112.243 E.0573
G1 X173.92 Y115.095 E.09566
G1 X166.366 Y133.282 E.61747
G1 X164.915 Y135.966 E.09567
G1 X163.923 Y137.425 E.05532
G1 X162.617 Y139.007 E.06432
G1 X161.183 Y140.401 E.06271
G1 X159.636 Y141.597 E.06131
G1 X158.699 Y142.196 E.03487
G1 X135.229 Y156.774 E.86629
G1 X134.009 Y157.42 E.04328
G1 X132.893 Y157.874 E.03778
G1 X131.538 Y158.303 E.04456
G1 X130.494 Y158.471 E.03316
G1 X121.335 Y158.542 E.28718
G1 X120.263 Y158.411 E.03386
G1 X119.181 Y157.996 E.03634
G1 X95.409 Y144.538 E.85651
G1 X93.461 Y143.13 E.07536
G1 X91.665 Y141.705 E.07188
G1 X90.041 Y140.209 E.06923
G1 X88.518 Y138.586 E.06978
G1 X87.09 Y136.832 E.07092
G1 X85.754 Y134.945 E.07249
G1 X84.503 Y132.92 E.07463
G1 X83.387 Y130.862 E.0734
G1 X75.907 Y114.81 E.55526
G1 X74.983 Y112.312 E.08351
G1 X74.301 Y109.871 E.07947
G1 X73.998 Y108.081 E.05692
G1 X73.906 Y106.997 E.03411
G1 X73.908 Y105.253 E.05468
G1 X74.007 Y104.179 E.03382
G1 X74.32 Y102.495 E.0537
G1 X83.908 Y65.804 E1.18905
G1 X84.363 Y64.552 E.04177
G1 X85.3 Y62.483 E.07121
G1 X85.921 Y61.351 E.04048
G1 X87.072 Y59.605 E.06557
M204 S1000
; printing object Body1.stl id:0 copy 0
;WIPE_START
G1 F8640
G1 X87.105 Y59.555 E-.01383
G1 X87.889 Y58.564 E-.29177
G1 X89.32 Y57.055 E-.48019
G1 X90.036 Y56.465 E-.21421
;WIPE_END
G1 Z.4 F720
G1 X99.144 Y125.094 F10800
G1 Z.2 F720
G1 E1 F2100
M204 S800
;TYPE:Perimeter
;WIDTH:0.419999
G1 F1200
G1 X98.932 Y125.113 E.00667
G1 X98.697 Y125.27 E.00886
G1 X98.087 Y125.952 E.02869
G1 X97.456 Y126.566 E.02761
G1 X96.947 Y126.994 E.02085
G1 X96.417 Y127.381 E.02058
G1 X95.869 Y127.726 E.0203
G1 X95.275 Y128.045 E.02114
G1 X95.059 Y128.25 E.00934
G1 X94.977 Y128.573 E.01045
G1 X94.989 Y128.796 E.007
;WIDTH:0.462645
G1 X94.969 Y128.921 E.00442
;WIDTH:0.50529
G1 X94.949 Y129.047 E.0049
;WIDTH:0.547936
G1 X94.929 Y129.172 E.00532
;WIDTH:0.590581
G1 X94.909 Y129.297 E.00576
G1 X94.895 Y130.307 E.046
;WIDTH:0.596502
G1 X94.9 Y130.486 E.00824
G1 X94.937 Y130.701 E.01004
;WIDTH:0.552377
G1 X94.974 Y130.917 E.00928
;WIDTH:0.508251
G1 X95.01 Y131.132 E.00843
;WIDTH:0.464125
G1 X95.047 Y131.347 E.00764
;WIDTH:0.419999
G1 X95.189 Y132.337 E.03136
G1 X95.404 Y133.32 E.03155
G1 X95.888 Y134.981 E.05425
G1 X97.217 Y138.98 E.13213
G1 X97.31 Y139.552 E.01817
G1 X97.255 Y139.946 E.01247
G1 X97.085 Y140.359 E.014
G1 X96.391 Y141.603 E.04466
G1 X95.222 Y140.746 E.04545
G1 X93.652 Y139.505 E.06275
G1 X92.182 Y138.158 E.06251
G1 X90.799 Y136.693 E.06317
G1 X89.495 Y135.098 E.0646
G1 X88.264 Y133.368 E.06657
G1 X87.101 Y131.491 E.06923
G1 X85.999 Y129.462 E.0724
G1 X84.952 Y127.265 E.07631
G1 X84.27 Y125.74 E.05238
G1 X84.505 Y125.511 E.01029
G1 X84.518 Y125.282 E.00719
G1 X84.426 Y125.047 E.00791
G1 X83.591 Y123.84 E.04602
G1 X82.888 Y122.546 E.04617
G1 X81.673 Y119.87 E.09215
G1 X81.118 Y118.763 E.03883
G1 X80.141 Y116.917 E.06549
G1 X79.641 Y115.907 E.03534
G1 X79.145 Y114.84 E.03689
G1 X78.663 Y113.72 E.03823
G1 X78.207 Y112.555 E.03923
G1 X77.786 Y111.348 E.04008
G1 X77.411 Y110.104 E.04074
G1 X77.206 Y109.285 E.02647
G1 X77.048 Y108.478 E.02578
G1 X76.935 Y107.682 E.02521
G1 X76.868 Y106.898 E.02467
G1 X76.847 Y106.125 E.02425
G1 X76.871 Y105.363 E.0239
G1 X76.939 Y104.612 E.02364
G1 X77.053 Y103.873 E.02344
G1 X77.212 Y103.144 E.02339
G1 X77.416 Y102.426 E.0234
G1 X77.66 Y101.732 E.02307
G1 X77.96 Y101.019 E.02425
G1 X78.3 Y100.332 E.02403
G1 X78.686 Y99.654 E.02446
G1 X79.118 Y98.986 E.02494
G1 X79.599 Y98.324 E.02566
G1 X80.616 Y97.029 E.05163
G1 X81.63 Y95.786 E.0503
G1 X83.544 Y93.525 E.09288
G1 X84.249 Y92.746 E.03294
G1 X84.955 Y92.047 E.03115
G1 X85.667 Y91.423 E.02968
G1 X86.386 Y90.871 E.02842
G1 X87.114 Y90.391 E.02734
G1 X87.854 Y89.98 E.02654
G1 X88.608 Y89.635 E.026
G1 X89.092 Y89.46 E.01614
G1 X89.585 Y89.25 E.0168
G1 X89.75 Y89.035 E.0085
G1 X89.797 Y88.769 E.00847
G1 X89.723 Y88.525 E.00799
G1 X88.731 Y86.8 E.06239
G1 X87.88 Y85.142 E.05843
G1 X87.439 Y84.124 E.03478
G1 X87.048 Y83.065 E.0354
G1 X86.706 Y81.964 E.03615
G1 X86.413 Y80.821 E.037
G1 X86.17 Y79.631 E.03808
G1 X85.976 Y78.393 E.03929
G1 X85.83 Y77.105 E.04064
G1 X85.733 Y75.764 E.04216
G1 X85.683 Y74.299 E.04596
G1 X85.695 Y72.906 E.04368
G1 X85.77 Y71.577 E.04174
G1 X85.908 Y70.308 E.04002
G1 X86.109 Y69.091 E.03868
G1 X86.374 Y67.921 E.03761
G1 X86.703 Y66.792 E.03687
G1 X87.099 Y65.694 E.0366
G1 X87.513 Y64.717 E.03327
G1 X87.963 Y63.786 E.03242
G1 X88.448 Y62.9 E.03167
G1 X88.968 Y62.062 E.03092
G1 X89.523 Y61.27 E.03032
G1 X90.112 Y60.525 E.02978
G1 X90.736 Y59.825 E.0294
G1 X91.395 Y59.172 E.02909
G1 X92.088 Y58.564 E.02891
G1 X92.815 Y58.002 E.02881
G1 X93.578 Y57.485 E.0289
G1 X94.375 Y57.014 E.02903
G1 X95.19 Y56.597 E.0287
G1 X96.075 Y56.207 E.03032
G1 X96.979 Y55.873 E.03022
G1 X97.916 Y55.585 E.03074
G1 X99.439 Y55.216 E.04913
M73 P0 R117
G1 X100.971 Y54.953 E.04874
G1 X102.509 Y54.795 E.04848
G1 X104.051 Y54.743 E.04838
G1 X105.105 Y54.768 E.03306
G1 X106.166 Y54.842 E.03335
G1 X107.228 Y54.967 E.03353
G1 X108.29 Y55.141 E.03374
G1 X109.353 Y55.364 E.03406
G1 X110.415 Y55.637 E.03438
G1 X111.475 Y55.96 E.03474
G1 X113.666 Y56.729 E.07281
G1 X114.839 Y57.082 E.03841
G1 X115.981 Y57.369 E.03692
G1 X117.156 Y57.607 E.03759
G1 X118.368 Y57.796 E.03846
G1 X119.545 Y57.924 E.03712
G1 X120.788 Y58.004 E.03905
G1 X122.029 Y58.03 E.03892
G1 X123.722 Y57.98 E.05311
G1 X125.426 Y57.836 E.05362
G1 X127.223 Y57.589 E.05687
G1 X129.02 Y57.25 E.05734
G1 X135.711 Y55.668 E.21558
G1 X138.612 Y55.07 E.09287
G1 X140.395 Y54.784 E.05662
G1 X142.091 Y54.582 E.05355
G1 X143.708 Y54.462 E.05084
G1 X145.261 Y54.422 E.04871
G1 X146.551 Y54.451 E.04046
G1 X147.858 Y54.542 E.04108
G1 X149.109 Y54.693 E.03951
G1 X150.341 Y54.907 E.03921
G1 X151.443 Y55.154 E.03541
G1 X152.502 Y55.448 E.03446
G1 X153.517 Y55.789 E.03357
G1 X154.489 Y56.176 E.0328
G1 X155.417 Y56.608 E.03209
G1 X156.302 Y57.087 E.03155
G1 X157.144 Y57.611 E.0311
G1 X157.944 Y58.18 E.03078
G1 X158.701 Y58.795 E.03058
G1 X159.401 Y59.442 E.02989
G1 X160.088 Y60.162 E.0312
G1 X160.718 Y60.914 E.03076
G1 X161.294 Y61.696 E.03045
G1 X161.852 Y62.558 E.0322
G1 X162.355 Y63.449 E.03208
G1 X162.816 Y64.387 E.03277
G1 X163.329 Y65.609 E.04155
G1 X163.761 Y66.858 E.04144
G1 X164.115 Y68.136 E.04158
G1 X164.389 Y69.448 E.04202
G1 X164.585 Y70.795 E.04268
G1 X164.703 Y72.181 E.04361
G1 X164.743 Y73.609 E.04479
G1 X164.706 Y75.08 E.04614
G1 X164.589 Y76.574 E.04699
G1 X164.394 Y78.039 E.04634
G1 X164.123 Y79.474 E.04579
G1 X163.775 Y80.878 E.04535
G1 X163.35 Y82.249 E.045
G1 X162.849 Y83.588 E.04483
G1 X162.272 Y84.892 E.04471
G1 X161.617 Y86.166 E.04492
G1 X160.426 Y88.306 E.07679
G1 X160.409 Y88.58 E.00861
G1 X160.528 Y88.835 E.00882
G1 X160.76 Y89.004 E.009
G1 X161.627 Y89.334 E.02909
G1 X162.439 Y89.735 E.02839
G1 X163.253 Y90.231 E.02989
G1 X164.073 Y90.825 E.03175
G1 X164.801 Y91.423 E.02954
G1 X165.494 Y92.048 E.02926
G1 X166.823 Y93.396 E.05935
G1 X168.099 Y94.852 E.0607
G1 X169.375 Y96.409 E.06312
G1 X170.229 Y97.533 E.04426
G1 X170.962 Y98.629 E.04134
G1 X171.584 Y99.709 E.03908
G1 X172.096 Y100.779 E.03719
G1 X172.546 Y101.998 E.04074
G1 X172.872 Y103.242 E.04032
G1 X173.074 Y104.511 E.04029
G1 X173.153 Y105.805 E.04065
G1 X173.131 Y106.438 E.01986
G1 X173.107 Y107.125 E.02155
G1 X172.937 Y108.471 E.04254
G1 X172.639 Y109.842 E.04399
G1 X172.213 Y111.245 E.04597
G1 X171.718 Y112.607 E.04544
G1 X171.168 Y113.995 E.04681
G1 X170.561 Y115.409 E.04825
G1 X169.895 Y116.856 E.04994
G1 X169.167 Y118.342 E.05188
G1 X168.372 Y119.875 E.05415
G1 X167.509 Y121.461 E.05661
G1 X166.258 Y123.643 E.07886
G1 X166.232 Y123.917 E.00863
G1 X166.369 Y124.819 E.02861
G1 X166.386 Y125.326 E.01591
G1 X166.266 Y125.872 E.01753
G1 X164.22 Y130.812 E.16765
G1 X163.708 Y131.969 E.03967
G1 X163.095 Y133.196 E.04301
G1 X162.362 Y134.461 E.04584
G1 X161.494 Y135.726 E.0481
G1 X160.468 Y136.965 E.05044
M73 C80
G1 X159.901 Y137.553 E.02561
G1 X159.285 Y138.124 E.02634
G1 X158.622 Y138.671 E.02695
G1 X157.91 Y139.188 E.02759
G1 X157.147 Y139.671 E.02831
G1 X156.311 Y140.126 E.02984
G1 X155.9 Y140.396 E.01542
G1 X155.459 Y140.599 E.01522
G1 X155.061 Y140.649 E.01258
G1 X154.569 Y140.563 E.01566
G1 X154.237 Y140.388 E.01177
G1 X153.884 Y140.066 E.01498
G1 X153.657 Y139.661 E.01456
G1 X153.587 Y139.218 E.01406
G1 X153.661 Y138.668 E.0174
G1 X153.912 Y138.086 E.01987
G1 X155.09 Y135.113 E.10027
G1 X155.418 Y134.162 E.03154
G1 X155.605 Y133.517 E.02106
G1 X155.777 Y132.74 E.02495
G1 X155.917 Y131.671 E.0338
G1 X155.951 Y131.006 E.02088
G1 X155.945 Y130.415 E.01853
G1 X155.892 Y129.757 E.0207
G1 X155.748 Y128.799 E.03037
G1 X155.733 Y128.357 E.01387
G1 X155.593 Y128.063 E.01021
G1 X155.462 Y127.955 E.00532
G1 X154.581 Y127.432 E.03212
G1 X154.257 Y127.214 E.01224
G1 X153.343 Y126.492 E.03652
G1 X152.538 Y125.742 E.0345
G1 X151.783 Y124.97 E.03386
G1 X151.519 Y124.853 E.00905
G1 X151.235 Y124.88 E.00894
G1 X151.007 Y125.036 E.00866
G1 X150.882 Y125.272 E.00837
G1 X150.558 Y126.549 E.04131
G1 X150.148 Y127.757 E.04
G1 X149.635 Y128.96 E.04101
G1 X149.019 Y130.16 E.04229
G1 X147.507 Y132.696 E.09257
G1 X145.907 Y135.1 E.09054
G1 X144.28 Y137.355 E.08719
G1 X142.68 Y139.452 E.0827
G1 X142.583 Y139.653 E.007
G1 X141.995 Y141.918 E.07337
G1 X141.829 Y142.399 E.01595
G1 X140.794 Y144.455 E.07217
G1 X139.684 Y146.562 E.07467
G1 X138.489 Y148.67 E.07598
G1 X137.191 Y150.749 E.07685
G1 X136.56 Y151.631 E.034
G1 X135.896 Y152.419 E.03231
G1 X135.194 Y153.116 E.03102
G1 X134.453 Y153.726 E.03009
G1 X133.672 Y154.251 E.02951
G1 X132.846 Y154.693 E.02937
G1 X131.971 Y155.057 E.02971
G1 X130.573 Y155.474 E.04574
G1 X130.129 Y155.497 E.01394
G1 X129.719 Y155.399 E.01322
G1 X129.351 Y155.17 E.01359
G1 X129.043 Y154.841 E.01413
G1 X128.85 Y154.442 E.0139
G1 X128.796 Y154.128 E.00999
G1 X128.832 Y153.634 E.01553
G1 X129.516 Y151.489 E.07059
;WIDTH:0.460149
G1 X129.61 Y151.259 E.00862
;WIDTH:0.500299
G1 X129.704 Y151.029 E.00945
;WIDTH:0.540449
G1 X129.798 Y150.799 E.01028
;WIDTH:0.580598
G1 X129.893 Y150.569 E.01113
G1 X130.088 Y149.845 E.03352
;WIDTH:0.577666
G1 X130.247 Y149.159 E.03131
G1 X130.362 Y148.502 E.02966
;WIDTH:0.590045
G1 X130.445 Y147.874 E.02882
G1 X130.432 Y147.723 E.00689
;WIDTH:0.547534
G1 X130.419 Y147.572 E.00636
;WIDTH:0.505022
G1 X130.406 Y147.421 E.00582
;WIDTH:0.462511
G1 X130.393 Y147.27 E.00529
;WIDTH:0.419999
G1 X130.381 Y146.667 E.01891
G1 X130.218 Y145.427 E.03921
G1 X130.193 Y144.74 E.02155
G1 X130.093 Y144.479 E.00876
G1 X129.905 Y144.311 E.00791
G1 X129.343 Y144 E.02014
G1 X128.817 Y143.657 E.01969
G1 X128.297 Y143.263 E.02046
G1 X127.781 Y142.818 E.02136
G1 X127.205 Y142.255 E.02525
G1 X126.659 Y141.646 E.02565
G1 X126.133 Y140.98 E.02661
G1 X125.596 Y140.212 E.02938
G1 X125.424 Y140.051 E.00739
G1 X125.144 Y139.97 E.00914
G1 X124.871 Y140.034 E.00879
G1 X124.69 Y140.184 E.00737
G1 X123.861 Y141.216 E.0415
G1 X123.218 Y141.967 E.031
G1 X122.753 Y142.453 E.02109
G1 X122.307 Y142.864 E.01902
G1 X121.319 Y143.633 E.03926
G1 X121.2 Y143.855 E.0079
G1 X121.182 Y144.055 E.0063
;WIDTH:0.461237
G1 X121.169 Y144.234 E.00624
;WIDTH:0.502475
G1 X121.156 Y144.413 E.00686
;WIDTH:0.543713
G1 X121.143 Y144.591 E.00743
;WIDTH:0.584951
G1 X121.057 Y146.064 E.0665
;WIDTH:0.585223
G1 X121.105 Y147.34 E.05758
;WIDTH:0.585634
G1 X121.283 Y148.68 E.061
G1 X121.561 Y149.908 E.05682
;WIDTH:0.593842
G1 X121.611 Y150.102 E.00918
G1 X121.688 Y150.295 E.00952
;WIDTH:0.550382
G1 X121.765 Y150.487 E.00873
;WIDTH:0.506921
G1 X121.842 Y150.68 E.00802
;WIDTH:0.46346
G1 X121.92 Y150.872 E.00725
;WIDTH:0.419999
G1 X122.737 Y153.76 E.0941
G1 X122.763 Y154.251 E.01542
G1 X122.617 Y154.753 E.01639
G1 X122.336 Y155.133 E.01482
G1 X121.952 Y155.427 E.01516
G1 X121.487 Y155.555 E.01512
G1 X121.046 Y155.548 E.01383
G1 X120.583 Y155.384 E.0154
G1 X118.71 Y154.291 E.06799
G1 X117.507 Y153.501 E.04513
G1 X116.937 Y153.07 E.02241
G1 X116.382 Y152.598 E.02284
G1 X115.852 Y152.082 E.02319
G1 X115.343 Y151.506 E.0241
G1 X114.501 Y150.435 E.04272
G1 X113.7 Y149.342 E.04249
G1 X112.196 Y147.101 E.08462
G1 X110.801 Y144.829 E.08359
G1 X109.536 Y142.673 E.07838
G1 X109.334 Y142.257 E.0145
G1 X109.047 Y141.262 E.03247
G1 X109.254 Y140.91 E.0128
G1 X109.247 Y140.609 E.00944
G1 X109.128 Y140.397 E.00762
G1 X108.261 Y139.437 E.04056
G1 X107.465 Y138.481 E.039
G1 X104.08 Y134.122 E.17304
G1 X103.505 Y133.355 E.03006
G1 X102.926 Y132.533 E.03153
G1 X102.355 Y131.659 E.03273
G1 X101.805 Y130.734 E.03374
G1 X101.287 Y129.761 E.03456
G1 X100.816 Y128.741 E.03523
G1 X100.399 Y127.671 E.03601
G1 X99.654 Y125.466 E.07298
G1 X99.627 Y125.399 E.00226
G1 X99.462 Y125.197 E.00818
G1 X99.208 Y125.089 E.00865
G1 X99.203 Y125.089 E.00016
M204 S1000
G1 X99.128 Y125.459 F10800
M204 S800
;TYPE:External perimeter
G1 F1200
G1 X98.979 Y125.52 E.00505
G1 X98.359 Y126.213 E.02916
G1 X97.709 Y126.846 E.02845
G1 X97.18 Y127.291 E.02167
G1 X96.629 Y127.693 E.02139
G1 X96.059 Y128.052 E.02112
G1 X95.432 Y128.391 E.02235
G1 X95.354 Y128.554 E.00567
G1 X95.377 Y128.985 E.01353
G1 X95.356 Y130.314 E.04167
G1 X95.42 Y131.294 E.03079
G1 X95.557 Y132.257 E.0305
G1 X95.766 Y133.215 E.03074
G1 X96.246 Y134.862 E.05379
G1 X97.636 Y139.047 E.13827
G1 X97.69 Y139.559 E.01614
G1 X97.621 Y140.045 E.01539
G1 X97.425 Y140.523 E.0162
G1 X96.512 Y142.16 E.05877
G1 X94.994 Y141.046 E.05904
G1 X93.407 Y139.792 E.06342
G1 X91.917 Y138.427 E.06336
G1 X90.515 Y136.942 E.06403
